svg/blood_pressure_outline.svg

<svg width="48" height="48" viewBox="0 0 48 48" fill="none" xmlns="http://www.w3.org/2000/svg">
<path d="M14.5658 4C8.68481 3.9998 3.91797 8.76684 3.91797 14.6479C3.92557 17.5868 5.13935 20.3258 7.02923 23.0798C7.63992 23.9158 7.85982 24.1887 8.57221 25.0427L16.2658 25.1307L21.0858 15.7949L25.5157 33.3116C29.1477 28.2097 29.3597 27.6397 31.6226 24.2297L35.0976 24.2267C35.5986 24.2337 35.6086 23.7238 35.0996 23.7128L31.3436 23.7208L25.7417 32.1016C24.7067 27.6497 21.1478 14.5309 21.1478 14.5309C20.7318 15.0719 19.0458 18.8698 15.9448 24.6167L8.82611 24.5327C6.22484 21.5888 4.77016 18.0778 4.45696 15.3889C4.45226 3.837 18.5468 0.617043 24.0327 10.8669C29.8756 0.293046 43.1385 4.42479 43.5605 15.2849C42.9995 23.6798 30.7976 31.6877 23.9507 43.0305C23.1987 41.8085 22.1967 40.4295 21.0658 38.9816C21.6786 37.7435 21.9981 36.381 21.9997 34.9996C21.9997 32.6127 21.0515 30.3235 19.3637 28.6357C17.6759 26.9479 15.3868 25.9997 12.9999 25.9997C10.6129 25.9997 8.32378 26.9479 6.63597 28.6357C4.94817 30.3235 3.99997 32.6127 3.99997 34.9996C3.99997 37.3865 4.94817 39.6757 6.63597 41.3635C8.32378 43.0513 10.6129 43.9995 12.9999 43.9995C14.6142 43.9978 16.1984 43.5618 17.5863 42.7374C18.9743 41.913 20.1149 40.7304 20.8888 39.3136C20.8707 39.349 20.8523 39.3843 20.8338 39.4196C21.9257 40.8745 22.9767 42.3905 23.9407 43.9995C31.4546 31.5507 44.0885 24.0017 44.0935 14.6479C44.0935 8.76684 39.3245 4 33.4426 4C29.4746 4.0038 25.8387 6.21257 24.0077 9.73233C22.1747 6.21127 18.5358 4.0023 14.5658 4ZM12.9999 26.5157C15.2499 26.5158 17.4077 27.4097 18.9988 29.0007C20.5898 30.5917 21.4836 32.7496 21.4837 34.9996C21.4836 37.2496 20.5898 39.4075 18.9988 40.9985C17.4077 42.5895 15.2499 43.4834 12.9999 43.4835C10.7497 43.4835 8.5918 42.5897 7.00069 40.9987C5.40959 39.4076 4.51567 37.2497 4.51556 34.9996C4.51567 32.7495 5.40959 30.5916 7.00069 29.0006C8.5918 27.4095 10.7497 26.5157 12.9999 26.5157ZM12.9999 29.1247C9.7552 29.1247 7.12493 31.7547 7.12493 34.9996H8.49991C8.49991 32.5146 10.5149 30.4997 12.9999 30.4997C15.4848 30.4997 17.4998 32.5146 17.4998 34.9996H18.8748C18.8748 31.7547 16.2448 29.1247 12.9999 29.1247ZM9.7519 32.0696L11.6799 36.4176C11.4609 36.7046 11.3429 37.0546 11.3419 37.4156C11.3419 38.3306 12.0849 39.0726 12.9999 39.0716C13.9148 39.0726 14.6578 38.3306 14.6578 37.4156C14.6588 36.4996 13.9158 35.7566 12.9999 35.7576C12.9019 35.7576 12.8039 35.7666 12.7069 35.7846L9.7519 32.0696Z" fill="#333333"/>
</svg>

<?xml version="1.0" encoding="UTF-8" standalone="no"?>
<!-- Created with Inkscape (http://www.inkscape.org/) -->
<svg id="svg8" xmlns:rdf="http://www.w3.org/1999/02/22-rdf-syntax-ns#" xmlns="http://www.w3.org/2000/svg" xmlns:osb="http://www.openswatchbook.org/uri/2009/osb" height="48" width="48" version="1.1" xmlns:cc="http://creativecommons.org/ns#" viewBox="0 0 12.7 12.7" xmlns:dc="http://purl.org/dc/elements/1.1/">
 <title id="title4753">UIO-icon</title>
 <metadata id="metadata5">
  <rdf:RDF>
   <cc:Work rdf:about="">
    <dc:format>image/svg+xml</dc:format>
    <dc:type rdf:resource="http://purl.org/dc/dcmitype/StillImage"/>
    <dc:title>UIO-icon</dc:title>
    <dc:creator>
     <cc:Agent>
      <dc:title>Joaquín Urbano</dc:title>
     </cc:Agent>
    </dc:creator>
    <dc:rights>
     <cc:Agent>
      <dc:title>GPL</dc:title>
     </cc:Agent>
    </dc:rights>
   </cc:Work>
  </rdf:RDF>
 </metadata>
 <g id="layer1" transform="translate(0,-284.3)">
  <path id="path827" d="m14.566 4c-5.8811-0.0002-10.648 4.7669-10.648 10.648 0.0076 2.939 1.2214 5.678 3.1113 8.432 0.6107 0.836 0.8306 1.109 1.543 1.963l7.6937 0.088 4.82-9.336 4.43 17.517c3.632-5.102 3.844-5.672 6.107-9.082l3.475-0.003c0.501 0.007 0.511-0.503 0.002-0.514l-3.756 0.008-5.602 8.381c-1.035-4.452-4.594-17.571-4.594-17.571-0.416 0.541-2.102 4.339-5.203 10.086l-7.1188-0.084c-2.6013-2.944-4.056-6.455-4.3692-9.144-0.0047-11.552 14.09-14.772 19.576-4.522 5.843-10.574 19.106-6.4422 19.528 4.418-0.561 8.395-12.763 16.403-19.61 27.746-0.752-1.222-1.754-2.601-2.885-4.049a9 9 0 0 0 0.934 -3.982 9 9 0 0 0 -9 -9 9 9 0 0 0 -9 9 9 9 0 0 0 9 9 9 9 0 0 0 7.889 -4.686 9 9 0 0 1 -0.055 0.106c1.092 1.455 2.143 2.971 3.107 4.58 7.514-12.449 20.148-19.998 20.153-29.352 0-5.8811-4.769-10.648-10.651-10.648-3.968 0.0038-7.604 2.2126-9.435 5.7324-1.833-3.5211-5.472-5.7301-9.442-5.7324zm-1.566 22.516a8.4844 8.4844 0 0 1 8.484 8.484 8.4844 8.4844 0 0 1 -8.484 8.484 8.4844 8.4844 0 0 1 -8.4844 -8.484 8.4844 8.4844 0 0 1 8.4844 -8.484zm0 2.609c-3.2447 0-5.875 2.63-5.875 5.875h1.375c0-2.485 2.015-4.5 4.5-4.5s4.5 2.015 4.5 4.5h1.375c0-3.245-2.63-5.875-5.875-5.875zm-3.248 2.945l1.928 4.348c-0.219 0.287-0.337 0.637-0.338 0.998 0 0.915 0.743 1.657 1.658 1.656 0.915 0.001 1.658-0.741 1.658-1.656 0.001-0.916-0.742-1.659-1.658-1.658-0.098 0-0.196 0.009-0.293 0.027l-2.955-3.715z" transform="matrix(.26458 0 0 .26458 0 284.3)" fill="#333"/>
 </g>
</svg>
